X:2042
T:Black Jack
T:Black Joke
R:Jig
C:Trad.
O:England
Z:Paul Hardy's Session Tunebook 2015 (see www.paulhardy.net). Creative Commons cc by-nc-sa licenced.
M:6/8
L:1/8
Q:3/8=100
K:G
|:D|"G"D>GG GFG|"Am"AcB "D7"AGF|"G"GAB "Em"dcB|"Am"AcB "D7"AGF|"G"G>AB "C"E>FG|"D7"DEF "G"G2:|
c|"G"B>dd d>Bd|"C"e>ce "D7"d2c|"G"B>GB dBd|"A7"e>de "D7"d2c|"G"B2G BAG|
"Am"AcB "D7"AGF|"G"GAB "Em"dcB|"Am"AcB "D7"AGF|"G"G>AB "C"E>FG|"D7"DEF "G"G2|]

